src/lib/packages/icons/src/assets/filled/file-import-alt.svg

<svg xmlns="http://www.w3.org/2000/svg" width="24" height="24" fill="none"><path fill="currentColor" d="M14.811 16.75H18V18c0 2-1 3-3 3H6c-2 0-3-1-3-3V6c0-2 1-3 3-3h5.25v3c0 2.42 1.33 3.75 3.75 3.75h3v5.5h-3.189l.72-.72a.75.75 0 1 0-1.061-1.061l-2 2a.749.749 0 0 0-.162.817.749.749 0 0 0 .162.244l2 2a.748.748 0 0 0 1.06 0 .75.75 0 0 0 0-1.061l-.719-.719ZM15 8.25h2.25l-4.5-4.5V6c0 1.58.67 2.25 2.25 2.25Zm7 7h-4v1.5h4a.75.75 0 0 0 0-1.5Z"/></svg>

<svg width="24" height="24" viewBox="0 0 24 24" fill="none" xmlns="http://www.w3.org/2000/svg">
<path d="M14.811 16.75H18V18C18 20 17 21 15 21H6C4 21 3 20 3 18V6C3 4 4 3 6 3H11.25V6C11.25 8.42 12.58 9.75 15 9.75H18V15.25H14.811L15.531 14.53C15.824 14.237 15.824 13.762 15.531 13.469C15.238 13.176 14.763 13.176 14.47 13.469L12.47 15.469C12.401 15.538 12.3461 15.621 12.3081 15.713C12.2321 15.896 12.2321 16.103 12.3081 16.286C12.3461 16.378 12.401 16.461 12.47 16.53L14.47 18.53C14.616 18.676 14.808 18.75 15 18.75C15.192 18.75 15.384 18.677 15.53 18.53C15.823 18.237 15.823 17.762 15.53 17.469L14.811 16.75ZM15 8.25H17.25L12.75 3.75V6C12.75 7.58 13.42 8.25 15 8.25ZM22 15.25H18V16.75H22C22.414 16.75 22.75 16.414 22.75 16C22.75 15.586 22.414 15.25 22 15.25Z" fill="currentColor"/>
</svg>
